packages/foundations/assets/icons/functional/images/maps/location_crosshairs_20.svg

<svg width="20" height="20" viewBox="0 0 20 20" fill="none" xmlns="http://www.w3.org/2000/svg">
<g clip-path="url(#clip0_186_48)">
<path fill-rule="evenodd" clip-rule="evenodd" d="M10 2C10.5625 2 11 2.4375 11 3V4.0312C13.5312 4.4688 15.5312 6.4688 15.9688 9H17C17.5938 9 18 9.4375 18 10C18 10.5312 17.5938 11 17 11H15.9688C15.5312 13.5312 13.5312 15.5312 11 15.9375V17C11 17.5625 10.5625 18 10 18C9.4375 18 9 17.5625 9 17V15.9375C6.4688 15.5312 4.4688 13.5312 4.0312 11H3C2.5312 11 2 10.6562 2 10C2 9.4375 2.4688 9 3 9H4.0312C4.4688 6.4688 6.4688 4.4688 9 4.0312V3C9 2.4375 9.4375 2 10 2ZM10 6C7.7812 6 6 7.7812 6 10C6 12.2188 7.7812 14 10 14C12.2188 14 14 12.2188 14 10C14 7.7812 12.2188 6 10 6ZM8 10C8 11.0938 8.9062 12 10 12C11.0938 12 12 11.0938 12 10C12 8.9062 11.0938 8 10 8C8.9062 8 8 8.9062 8 10Z" fill="#1A1C1F"/>
</g>
<defs>
<clipPath id="clip0_186_48">
<rect width="20" height="20" fill="white"/>
</clipPath>
</defs>
</svg>

<svg xmlns="http://www.w3.org/2000/svg" width="20" height="20" fill="none"><g clip-path="url(#a)"><path fill="#1A1C1F" fill-rule="evenodd" d="M10 2c.563 0 1 .438 1 1v1.031A6.11 6.11 0 0 1 15.969 9H17c.594 0 1 .438 1 1 0 .531-.406 1-1 1h-1.031c-.438 2.531-2.438 4.531-4.969 4.938V17c0 .563-.437 1-1 1s-1-.437-1-1v-1.062C6.469 15.53 4.469 13.53 4.031 11H3c-.469 0-1-.344-1-1 0-.562.469-1 1-1h1.031A6.11 6.11 0 0 1 9 4.031V3c0-.562.438-1 1-1m0 4c-2.219 0-4 1.781-4 4s1.781 4 4 4 4-1.781 4-4-1.781-4-4-4m-2 4c0 1.094.906 2 2 2s2-.906 2-2-.906-2-2-2-2 .906-2 2" clip-rule="evenodd"/></g><defs><clipPath id="a"><path fill="#fff" d="M0 0h20v20H0z"/></clipPath></defs></svg>
